X:1
T:Fitzroy, 87.87.75.75.87.87
T:Fitzroy, 87.87.75.75.87.87
T:Charles Villiers Stanford, circa 1915
T:Public Domain Courtesy of the Cyber Hymnal™
C:Charles Villiers Stanford, circa 1915
Z:Public Domain
Z:Courtesy of the Cyber Hymnal™
%%score ( 1 2 ) ( 3 4 ) ( 5 6 )
L:1/8
Q:1/4=110
M:2/4
K:G
V:1 treble 
V:2 treble 
V:3 treble 
V:4 treble 
V:5 bass 
V:6 bass 
V:1
 G2 A2 | B3 A x | G2 A2 | c3 B | A2 B2 | d2 c2 | B2 A2 | B4 | G2 A2 | B3 A x | B2 c2 | e3 d | %12
 c2 d2 | B2 (AG) | A2 B2 | E4 | G2 A2 | B3 A | G2 A2 | F4 | G2 F2 | B2 A2 | B4 | A2 B2 | c3 B | %25
 A2 B2 | G4 | A2 F2 | G2 E2 | D4 | E2 F2 | G3 F | G2 A2 | c3 B | A2 B2 | d2 c2 | B2 A2 | B4 | %38
 G2 A2 | B3 A | B2 c2 | e3 d | D2 (EF) | G2 (AB) | c2 A2 x2 | d4 |] %46
V:2
 x4 | x5 | x4 | x4 | x4 | x4 | x4 | x4 | x4 | x5 | x4 | x4 | x4 | x4 | x4 | x4 | x4 | x4 | x4 | %19
 x4 | x4 | x4 | x4 | x4 | x4 | x4 | x4 | x4 | x4 | x4 | x4 | x4 | x4 | x4 | x4 | x4 | x4 | x4 | %38
 x4 | x4 | x4 | x4 | x4 | x4 | x6 | d4 |] %46
V:3
"^Organ" [DG]2 A2 | [GB]3 [FA] x | [EG]2 [FA]2 | c3 B | [EA]2 [GB]2 | [=FA-d]2 [EAc]2 | %6
 [GB]2 [F-A]2 | [FB]4 | [EG]2 [FA]2 | [GB]3 A x | B2 c2 | e3 d | [Gc]2 [Fd]2 | [GB]2 ([FA][EG]) | %14
 [EA]2 [^DB]2 | [B,E]4 | G2 A2 | B3 A | [EG]2 [EA]2 | F4 | [DG]2 [^DF]2 | B2 A2 | B4 | A2 B2 | %24
 c3 B | [EA]2 [F-B]2 | G4 | [EA]2 [D-F]2 | [DG]2 [^CE]2 | D4 | [G,E]4- | [G,DEG-]4 | [EG]2 [FA]2 | %33
 [CG-c]3 [DGB] | [EFA]2 [DGB]2 | [FBd]2 [Ac]2 | [GB]2 [FA]2 | [FB]4 | z2 A2 | [GB]3 [FA] | B2 c2 | %41
 e3 d | B2 A2 | [EG]4 | [Ec]2 [FA]2 x2 | [DGd]4 |] %46
V:4
 x2 (EF) | x5 | x4 | G4 | x4 | x4 | x4 | x4 | x4 | x5 | G4- | G4- | x4 | x4 | x4 | x4 | E4- | E4- | %18
 x4 | E2 D2- | x4 | E4- | (E2 ^D2) | E4- | E4- | x4 | (F2 E2) | x4 | x4 | D4 | x4 | x4 | [CD]4 | %33
 x4 | x4 | x4 | x4 | x4 | G4- | x4 | G4- | G4 | D4 | x4 | x6 | x4 |] %46
V:5
 [B,,D]2 [A,,C]2 | C4 [D,A,] | [E,G,B,]2 [D,A,D]2 | [C,CE]3 [G,D] | [A,C]2 [G,D-]2 | [D,D]2 A,2 | %6
 D3 [CE] | (E2 ^D2) | [E,B,]2 [D,D]2 | D4- D, | [G,D]2 [E,G,]2 | [C,C]3 [B,,D] | [E,G,]2 [D,A,]2 | %13
 G,2 (A,B,) | [C,E,]2 (F,A,) | (A,2 G,2) | [E,B,]2 [F,A,]2 | G,3 [F,A,] | [E,B,]2 [^C,-A,]2 | %19
 [C,^A,]2 [B,,B,]2- | B,4- | [G,,B,]2 [F,,C]2 | [B,,F,]4 | [C,A,]2 [B,,G,]2 | [A,,F,]3 [B,,G,] | %25
 [C,A,]2 [D,D]2 | [E,B,]4 | A,4 | [G,,B,]2 [A,,A,]2 | [D,F,]4 | [C,E,]4 | [B,,D,-]4 | [A,,D,]4 | %33
 E,3 G, | C2 B,2 | [B,,D]2 ([C,E][D,F]) | [E,B,]2 [CE-]2 | E2 ^D2 | B,2 C2 | [D,D]4- | %40
 [D,D]2 [C,E]2 | C3 B, | [G,,B,]2 [F,,A,]2 | [E,,G,B,]4 | C4- [A,,A,]2 | [G,,G,C]4 |] %46
V:6
 x4 | [G,,B,]3 x2 | x4 | x4 | x4 | x2 A,2 | B,2 D x | B,4 | x4 | G,3 x2 | x4 | x4 | x4 | E,4 | %14
 x2 B,,2 | E,4 | x4 | G,3 x | x4 | x4 | B,,2 A,,2 | x4 | x4 | x4 | x4 | x4 | x4 | ^C,2 D,2 | x4 | %29
 x4 | x4 | x4 | x4 | G,,4- | G,,4 | x4 | x4 | B,4 | E,4 | x4 | x4 | G,,4- | x4 | x4 | %44
 [A,,-C,]2 x4 | x4 |] %46

